X: 1
T: the Lonely Accordion  [Am]
O: Russia
R: waltz
Z: 2006 John Chambers <jc:trillian.mit.edu>
S: handwritten MS of unknown origin
M: 3/4
L: 1/8
K: Am
A2 c2 \
| "Am"e2 c2 A2 | "E7"^G2 B2 d2 | f2 e4- | e2 A2 B2 \
| "Am"c2 A2 F2 | "E7"E2 A2 B2 | "Am"c6- | c2 d2 e2 |
| "F"f2 f2 c2 | "G7"B2 B2 d2 | "C"e6- | e2 A2 c2 \
| "E7"d2 d2 c2 | B2 A2 B2 | "Am"c6- | c2 d2 e2 |
| "Ddim"f2 f2 B2 | "Bdim"g2 g2 f2 | "Am"f2 e4- | e2 A2 e2 \
| "Bdim"d2 d2 c2 | "E7"B2 A2 ^G2 | "Am"A6- | Az :|
